X:1
T:L’Omnipotent, 11.10.11.10
T:L’Omnipotent, 11.10.11.10
T:Louis Bourgeois, Genevan Psalter, 1543
T:Public Domain Courtesy of the Cyber Hymnal™
C:Louis Bourgeois, Genevan Psalter, 1543
Z:Public Domain
Z:Courtesy of the Cyber Hymnal™
%%score ( 1 2 ) ( 3 4 )
L:1/8
Q:1/4=110
M:4/4
K:Bb
V:1 treble 
V:2 treble 
V:3 bass 
V:4 bass 
V:1
 [DG]4 [DF]2 [DG]2 | A4 z2 x6 | [Ac]2 [Bd]2 [Ac]2 [GB]2 x | [^FA]4 G4 | [FB]4 [FA]2 [EG]2 | %5
 [DF]4 [=EG]4 | [FA]2 [=EG]2 [DG]2 [D^F]2 | [DG]8 | [B,D]4 [EG]2 [EG]2 | [DF]4 [EG]4 | %10
 [DB]2 [FA]2 [EG]2 [DF]2 | [CE]4 D4 | z2 [CF]2 [EG]2 [EA]2 | [DB]4 [EB]4 | [Ec]2 [DG]2 B4 x2 | %15
 [^FA]4 G4 |] %16
V:2
 x8 | F6 (B4 G2) | x9 | x4 G4 | x8 | x8 | x8 | x8 | x8 | x8 | x8 | x4 D4 | x8 | x8 | %14
 x4 (D2 =E2) x2 | x4 G4 |] %16
V:3
 [G,B,]4 [D,A,]2 [G,B,]2 | C4 [D,D]4 x4 | [C,E]2 [B,,F]2 E3 z D | [D,C]4 [E,B,]4 | %4
 [B,,D]4 [D,B,]2 [E,B,]2 | B,4 [G,,B,]4 | [F,,A,]2 (CB,) [D,A,]2 [D,A,]2 | [G,,B,]8 | %8
 [G,,B,]4 [G,,B,]2 [A,,C]2 | (D2 C2) [E,B,]4 | [G,B,]2 [D,D]2 [E,B,]2 [B,,B,]2 | %11
 (B,2 A,2) [B,,F,]4 | z2 [F,A,]2 [E,B,]2 [C,C]2 | [G,B,]2 [F,_A,]2 [E,G,]4 | [C,G,]2 [E,G,]2 D6 | %15
 z2 C2 [G,B,]4 |] %16
V:4
 x8 | (F,2 E,2) x8 | x4 C,2 C,2 x | x8 | x8 | (B,,2 A,,2) x4 | x2 E,2 x4 | x8 | x8 | B,,4 x4 | x8 | %11
 C,4 x4 | x8 | x8 | x4 (B,,2 C,2) x2 | D,4 x4 |] %16

